**kern
*staff1
*head1[head1]
*solo1[solo1]
*solo2[solo2]
*solo3[solo3]
=1-
*clefG2
*k[]
*B-:
*M4/4
*>head1
{8dd\L
8cc\
8b-\
8a\J
8b-\
4a/
[8cc\
=2
8cc\L]
8b-\J
4r
4r
8r
8f/
=3
8dd\L
8cc\
8b-\
8a\J
8b-/L
8f/
8g/
8a-/J}
=4
1r
=5
{8dd-\L
8cc\
8b-\
8a\J
8b-\
4a/
[8cc\
=6
8cc\L]
8b-\J
4r
4r
8r
8f/
=7
8dd\L
8cc\
8b-\
8a\J
8b-/L
8f/
8g/
8a-/J}
=8
1r
=9
{8dd\L
8cc\
8b-\
8a\J
8b-\
4a/
[8cc\
=10
8cc\L]
8b-\J
4r
4r
8r
8f/
=11
8dd\L
8cc\
8b-\
8a\J
8b-/L
8f/
8g/
8a-/J}
=12
2r
8r
*>solo1
{[8a-/L
8a1/J]
32g/LLL
32g-/
32f/
32e-/JJJ
=13
8d/
8r
4r
8e-/L
8B-/
8c#/
[8d/J
=14||
8d/]
8r
8r
[8a-/
8a-/]
32g/LLL
32g-/
32f/
32e-/JJ
8d/J
8r
=15
8r
[8e-/L
8e-/J]
48d/LLL
48c/
48B-/
48A-/
48G/
48F/JJJ}
4r
8r
{[8d/
=16
4d/]
8c/L
8B/J
8B-/L
8A/
8A-/
8c/J
=17
8G/L
8B-/
8c/
8f/J
8e-/L
8B-/
8c/
8d-/J}
=18
4r
8r
{[8d/
4d/]
8d#/L
8e/J
=19
4f/
4r
24a/LL
24b-/
24a/JJ
8g/L
8f/
[8e-/J
=20
8e-/L]
8c/
8B/
8d/J
8f/L
8a-/
8g/
8d/J
=21
8f/L
[8e-/J
4e-/]}
2r
=22
8r
{24dd\LL
24cc\
24b-\JJ
8g/L
8f/J
8e-/L
8d/
8c/
8B-/J
=23
16A/LL
16c/
16e-/
16g-/JJ
4f/
8r
8A/L
8B-/
8e-/J
=24
8d/L
8B-/J}
4r
8r
{[8d/
4d/]
=25
*>solo2
8e-/L
8B-/
8d/
8e-/J
24d/LL
24e-/
24d/JJ
8B-/L
8e-/
8B-/J
=26||
8d/L
[8e-/J
4e-/]
4r
8r
8B-/
=27
4e-/
8e-/L
8d/J
8B-/L
[8A-/J
4A-/]}
=28
2r
{8g/L
8g-/
8f/
8e/J
=29
8e-/L
8A/
8B-/
8c/J
8d-/L
[8E-/J
4E-/]}
=30
1r
=31
8r
{8f#/
12g\L
12b-\
12dd\J
8ff\L
8ee-\
8dd\
8cc\J
=32
8b/L
8d/
8f/
8g/J
8a-/L
16b-/L
16a-/J
8g/
8f/J
=33
4e-/}
4r
8r
{16dd\LL
16cc\JJ
12b-/L
12g/
12f/J
=34
8e-/L
8d/
8c/
8B-/J
12A/L
12c/
12e-/J
8g-/L
[8f/J
=35
4f/]
4B-/
8d/L
[8e-/J
4e-/]}
=36
2r
8r
*>solo3
{8c#/
12d/L
12f/
12a/J
=37
4b-\
4r
8cc\L
8bn\
8b-\
8a-\J
=38||
8g/L
8f/
8e-/
8c/J
8b-/L
8g-/
8e-/
8B/J
=39
4B-/
4r
8e-/L
8c/
8c#/
8d/J
=40
4r
8A-/L
8c/J
8g/L
8g-/
8e/
8B/J
=41
8c/L
8d-/
8A-/
8G-/J
8Gn/L
8B-/
8f/
[8e-/J
=42
4e-/]}
4r
4r
8r
{[8dd-\
=43
4.dd-\]
aq/
[8b-\
8b-/L]
8f#/
8g/
8e-/J
=44
4e/
8c/L
[8d-/J
4d-/]}
4r
=45
8r
{16c/LL
16e-/J
8g/
8b-/J
8dd\L
8dd-\
8cc\
8bn\J
=46
8b-\L
16cc\L
16b-\J
8a\
8g\J
8f/L
8e-/J
24d/LL
24e-/
24d/JJ
8c/
=47
8A/L
8B-/
8c/
8A/J
8B-/L
[8d/J
4d/]
=48
4r
8r
16c/LL
16d/JJ
8e-/L
8g-/
8f/
8e-/J
=49
24d/LL
24e-/
24d/JJ
[8B-/
4B-/]}
2r
==
*-
